_src/_includes/img/icons/duotone-icons/Text/Align-auto.svg

<svg height="24" viewBox="0 0 24 24" width="24" xmlns="http://www.w3.org/2000/svg"><g fill="none" fill-rule="evenodd"><path d="m0 0h24v24h-24z"/><g fill="#335eea"><path d="m9.618 5-.883 2h-5.735a1 1 0 1 1 0-2zm4.764 0h6.618a1 1 0 0 1 0 2h-5.735zm-8.294 8-.882 2h-2.206a1 1 0 0 1 0-2zm11.824 0h3.088a1 1 0 0 1 0 2h-2.206zm-10.06-4-.881 2h-3.971a1 1 0 0 1 0-2h4.853zm8.295 0h4.853a1 1 0 0 1 0 2h-3.97zm-11.823 8-.883 2h-.441a1 1 0 0 1 0-2zm15.352 0h1.324a1 1 0 0 1 0 2h-.441z" opacity=".3"/><path d="m11.044 5.256h1.962l5.494 13.744h-2.5l-1.284-3.916h-5.526l-1.69 3.916h-2.5zm2.88 7.884-1.962-5.184-1.998 5.184z"/></g></g></svg>

<svg width="24" height="24" viewBox="0 0 24 24" xmlns="http://www.w3.org/2000/svg"><g fill="none" fill-rule="evenodd"><path d="M0 0h24v24H0z"/><path d="M9.618 5l-.883 2H3a1 1 0 110-2h6.618zm4.764 0H21a1 1 0 010 2h-5.735l-.883-2zm-8.294 8l-.882 2H3a1 1 0 010-2h3.088zm11.824 0H21a1 1 0 010 2h-2.206l-.882-2zM7.852 9l-.881 2H3a1 1 0 010-2h4.853zm8.295 0H21a1 1 0 010 2h-3.97l-.883-2zM4.324 17l-.883 2H3a1 1 0 010-2h1.324zm15.352 0H21a1 1 0 010 2h-.441l-.883-2z" fill="#335EEA" opacity=".3"/><path d="M11.044 5.256h1.962L18.5 19H16l-1.284-3.916H9.19L7.5 19H5l6.044-13.744zm2.88 7.884l-1.962-5.184-1.998 5.184h3.96z" fill="#335EEA"/></g></svg>
